icons/svg/bluetooth.svg

<svg width="24" height="24" viewBox="0 0 24 24" fill="none" xmlns="http://www.w3.org/2000/svg">
<path d="M6.25 7.5L11.7045 12M11.7045 12L16.9504 15.9823C17.293 16.2424 17.293 16.7576 16.9504 17.0177L12.7476 20.2082C12.3196 20.5331 11.7045 20.2279 11.7045 19.6905V4.30951C11.7045 3.77214 12.3195 3.46687 12.7476 3.79179L16.9504 6.98228C17.293 7.24239 17.293 7.75761 16.9504 8.01772L11.7045 12ZM11.7045 12L6.25 16.5" stroke="currentColor" stroke-width="1.5" stroke-linecap="round" stroke-linejoin="round"/>
</svg>

<svg xmlns="http://www.w3.org/2000/svg" width="24" height="24" fill="none" viewBox="0 0 24 24"><path stroke="currentColor" stroke-linecap="round" stroke-linejoin="round" stroke-width="1.5" d="m6.25 7.5 5.454 4.5m0 0 5.246 3.982a.65.65 0 0 1 0 1.036l-4.202 3.19a.65.65 0 0 1-1.043-.517V4.31a.65.65 0 0 1 1.043-.518l4.202 3.19a.65.65 0 0 1 0 1.036zm0 0L6.25 16.5"/></svg>
